src/assets/password-Icon.svg

<svg 
 xmlns="http://www.w3.org/2000/svg"
 xmlns:xlink="http://www.w3.org/1999/xlink"
 width="33px" height="33px">
<defs>
<filter id="Filter_0">
    <feFlood flood-color="rgb(0, 25, 127)" flood-opacity="1" result="floodOut" />
    <feComposite operator="atop" in="floodOut" in2="SourceGraphic" result="compOut" />
    <feBlend mode="normal" in="compOut" in2="SourceGraphic" />
</filter>

</defs>
<g filter="url(#Filter_0)">
<path fill-rule="evenodd"  fill="rgb(238, 242, 247)"
 d="M30.032,25.613 C29.704,25.744 29.491,26.056 29.491,26.407 L29.491,27.521 C29.491,28.233 28.875,28.810 28.116,28.810 C27.357,28.810 26.742,28.233 26.742,27.521 L26.742,26.407 C26.742,25.022 27.610,23.779 28.953,23.242 C29.730,22.931 30.235,22.224 30.249,21.435 C30.249,21.423 30.249,21.412 30.249,21.400 C30.249,20.297 29.292,19.400 28.116,19.400 C26.940,19.400 25.984,20.297 25.984,21.400 C25.984,22.112 25.369,22.689 24.609,22.689 C23.850,22.689 23.235,22.112 23.235,21.400 C23.235,18.876 25.425,16.822 28.116,16.822 C30.789,16.822 32.967,18.847 32.998,21.347 C32.999,21.365 32.999,21.382 32.999,21.400 C32.999,23.237 31.835,24.891 30.032,25.613 ZM6.323,22.300 C6.323,21.589 6.938,21.011 7.697,21.011 C8.456,21.011 9.072,21.589 9.072,22.300 C9.072,23.012 8.456,23.590 7.697,23.590 C6.938,23.590 6.323,23.012 6.323,22.300 ZM11.477,22.300 C11.477,21.589 12.093,21.011 12.852,21.011 C13.611,21.011 14.227,21.589 14.227,22.300 C14.227,23.012 13.611,23.590 12.852,23.590 C12.093,23.590 11.477,23.012 11.477,22.300 ZM16.632,22.300 C16.632,21.589 17.248,21.011 18.007,21.011 C18.766,21.011 19.381,21.589 19.381,22.300 C19.381,23.012 18.766,23.590 18.007,23.590 C17.248,23.590 16.632,23.012 16.632,22.300 ZM26.052,14.774 C25.854,14.721 25.605,14.695 25.292,14.695 L5.498,14.695 C3.982,14.695 2.749,15.852 2.749,17.273 L2.749,27.843 C2.749,29.265 3.982,30.421 5.498,30.421 L22.612,30.421 C23.371,30.422 23.987,30.999 23.987,31.711 C23.987,32.423 23.371,33.000 22.612,33.000 L5.498,33.000 C2.466,33.000 -0.001,30.687 -0.001,27.844 L-0.001,17.273 C-0.001,14.430 2.466,12.117 5.498,12.117 L7.145,12.117 L7.145,7.571 C7.145,3.396 10.845,-0.000 15.392,-0.000 C19.940,-0.000 23.640,3.396 23.640,7.571 L23.640,12.117 L25.292,12.117 C25.865,12.117 26.361,12.175 26.809,12.296 C27.539,12.492 27.961,13.206 27.751,13.890 C27.543,14.574 26.781,14.970 26.052,14.774 ZM20.891,7.571 C20.891,4.818 18.424,2.578 15.392,2.578 C12.361,2.578 9.894,4.818 9.894,7.571 L9.894,12.117 L20.891,12.117 L20.891,7.571 ZM28.110,30.422 C28.869,30.422 29.485,30.999 29.485,31.711 C29.485,32.423 28.869,33.000 28.110,33.000 C27.351,33.000 26.736,32.423 26.736,31.711 C26.736,30.999 27.351,30.422 28.110,30.422 Z"/>
</g>
</svg>

<?xml version="1.0" encoding="utf-8"?>
<!-- Generator: Adobe Illustrator 21.0.2, SVG Export Plug-In . SVG Version: 6.00 Build 0)  -->
<svg width="32px" height="32px" version="1.1" id="Layer_1" xmlns="http://www.w3.org/2000/svg" xmlns:xlink="http://www.w3.org/1999/xlink" x="0px" y="0px"
	 viewBox="0 0 33 33" style="enable-background:new 0 0 33 33;" xml:space="preserve">
	<path fill="#181614" d="M30,25.6c-0.3,0.1-0.5,0.4-0.5,0.8v1.1c0,0.7-0.6,1.3-1.4,1.3c-0.8,0-1.4-0.6-1.4-1.3v-1.1
	c0-1.4,0.9-2.6,2.2-3.2c0.8-0.3,1.3-1,1.3-1.8c0,0,0,0,0,0c0-1.1-1-2-2.1-2c-1.2,0-2.1,0.9-2.1,2c0,0.7-0.6,1.3-1.4,1.3
	c-0.8,0-1.4-0.6-1.4-1.3c0-2.5,2.2-4.6,4.9-4.6c2.7,0,4.9,2,4.9,4.5c0,0,0,0,0,0.1C33,23.2,31.8,24.9,30,25.6z M6.3,22.3
	c0-0.7,0.6-1.3,1.4-1.3s1.4,0.6,1.4,1.3c0,0.7-0.6,1.3-1.4,1.3S6.3,23,6.3,22.3z M11.5,22.3c0-0.7,0.6-1.3,1.4-1.3s1.4,0.6,1.4,1.3
	c0,0.7-0.6,1.3-1.4,1.3S11.5,23,11.5,22.3z M16.6,22.3c0-0.7,0.6-1.3,1.4-1.3s1.4,0.6,1.4,1.3c0,0.7-0.6,1.3-1.4,1.3
	S16.6,23,16.6,22.3z M26.1,14.8c-0.2-0.1-0.4-0.1-0.8-0.1H5.5c-1.5,0-2.7,1.2-2.7,2.6v10.6c0,1.4,1.2,2.6,2.7,2.6h17.1
	c0.8,0,1.4,0.6,1.4,1.3S23.4,33,22.6,33H5.5c-3,0-5.5-2.3-5.5-5.2V17.3c0-2.8,2.5-5.2,5.5-5.2h1.6V7.6c0-4.2,3.7-7.6,8.2-7.6
	c4.5,0,8.2,3.4,8.2,7.6v4.5h1.7c0.6,0,1.1,0.1,1.5,0.2c0.7,0.2,1.2,0.9,0.9,1.6C27.5,14.6,26.8,15,26.1,14.8z M20.9,7.6
	c0-2.8-2.5-5-5.5-5c-3,0-5.5,2.2-5.5,5v4.5h11V7.6z M28.1,30.4c0.8,0,1.4,0.6,1.4,1.3S28.9,33,28.1,33c-0.8,0-1.4-0.6-1.4-1.3
	S27.4,30.4,28.1,30.4z"/>
</svg>
